X:11204
T:Morning Star,The. FK.08
M:C
L:1/8
Q:160
C:"MS no.35"
S:Kidson's H'pipe MS,early 20thC.
R:Hornpipe
O:England
A:Leeds
N:Reminds me of a morris tune.
Z:vmp.John Bagnall
K:G
FG | BABG E2 FG | AFAF D2 GA | BABG E2 FE | D2 G2 G2 :|!
"qu"d2 | B2 d2 efge | dcBA B2 G2 |B2 d2 efge | f2 d2 d3 d |!
 B2 d2 efge | dcBA | G2 GA |BABG E2 FE | D2 G2 G2 ||
